X:1
T:Angoloise efter Sven Lorenz Bruun
M:2/4
L:1/8
R:Engelska
Z:Transkription gjord av Jonas Brunskog, 23/6 2008
O:Mnsters, Dderhultsvik, Smland
S:efter Sven Lorenz Bruun
N:Folkmusikkommissionens notsamling, Bild: 59 Volym: M 188 Datering: -1837. Angls 1 av 2.
K:Bb
|:bB/2B/2 Bb|b/2a/2g/2f/2 e/2d/2c/2B/2| fF/2F/2 Ff|e/2c/2A/2c/2 B2:|
|:dd fd|e/2d/2e/2g/2 gf|dd fd|c/2e/2A/2c/2 B2:|
